X: 1
T: Daisy Bell
C: Harry Dacre
R: waltz
M: 3/4
L: 1/8
K: G
"Intro"\
| "G"[d2d'2] [^c2^c'2] [d2d'2] | [B2b2] [A2a2] [G2g2] | "D7"[A4a4] f2 | d4 d'2 \
| "G"bd ef ga | ^ab e'd' bg | "D7"[a4c4] [d2c2] | [g4B4] z2 |]
"Verse"\
[| "G"d2 ^c2 d2 | B2 A2 G2 | "D7"A4 F2 | D4 z2 "D7"A6 | D6 | "G"d6 | B4 z2 |
